X: 25
T: Ievan Polkka
Z: Yoann
S: https://thesession.org/tunes/418#setting51172
R: polka
M: 2/4
L: 1/8
K: Bmin
|:FB B>c|dB Bd|cA Ac|dB B2|
FB B>c|dB BB/d/|~f>e dc|1cB B2:|2d/d/B B>d||
|:ff ed|cA ~A>c|~e>e dc|cB BB/d/|
~f>f ed|cA Ac|~e>e dc|1d/d/B B>d:|2cB B2||

